communes/5884.svg

<?xml version="1.0" encoding="UTF-8"?>
<svg version="1.0" viewBox="0 0 603 763" xmlns="http://www.w3.org/2000/svg" xmlns:cc="http://creativecommons.org/ns#" xmlns:dc="http://purl.org/dc/elements/1.1/" xmlns:rdf="http://www.w3.org/1999/02/22-rdf-syntax-ns#" xmlns:xlink="http://www.w3.org/1999/xlink">
<metadata>
<rdf:RDF>
<cc:Work rdf:about="">
<dc:format>image/svg+xml</dc:format>
<dc:type rdf:resource="http://purl.org/dc/dcmitype/StillImage"/>
<dc:date>07-AUG-2006</dc:date>
<dc:creator>
<cc:Agent>
<dc:title>Jérôme BLUM (wagner51)</dc:title>
</cc:Agent>
</dc:creator>
<cc:license rdf:resource="http://creativecommons.org/licenses/GPL/2.0/"/>
<dc:coverage/>
<dc:description>Gabarit pour le Projet:Blasons de WIkipédia</dc:description>
<dc:subject>
<rdf:Bag>
<rdf:li>blason suisse modèle gabarit projet blasons</rdf:li>
</rdf:Bag>
</dc:subject>
<dc:language>fr</dc:language>
<dc:title>Gabrit d'un blason suisse</dc:title>
</cc:Work>
<cc:License rdf:about="http://creativecommons.org/licenses/GPL/2.0/">
<cc:permits rdf:resource="http://web.resource.org/cc/Reproduction"/>
<cc:permits rdf:resource="http://web.resource.org/cc/Distribution"/>
<cc:requires rdf:resource="http://web.resource.org/cc/Notice"/>
<cc:permits rdf:resource="http://web.resource.org/cc/DerivativeWorks"/>
<cc:requires rdf:resource="http://web.resource.org/cc/ShareAlike"/>
<cc:requires rdf:resource="http://web.resource.org/cc/SourceCode"/>
</cc:License>
</rdf:RDF>
</metadata>
<defs>
<radialGradient id="a" cx="858.04" cy="579.93" r="300" gradientTransform="matrix(1.215 1.5316e-24 1.4647e-23 1.2667 -839.19 -490.49)" gradientUnits="userSpaceOnUse">
<stop stop-color="#fff" stop-opacity=".31373" offset="0"/>
<stop stop-color="#fff" stop-opacity=".25098" offset=".19"/>
<stop stop-color="#6b6b6b" stop-opacity=".12549" offset=".6"/>
<stop stop-opacity=".12549" offset="1"/>
</radialGradient>
</defs>
<desc>Coat of Arms of Canton of Freiburg (Fribourg)</desc>
<g>
<path d="m1.5 1.5v458.87c0 166.31 134.31 301.13 300 301.13s300-134.82 300-301.13v-458.87h-600z" fill="#2b5df2"/>
<path d="m1.5 251.19v209.18c0 166.31 134.31 301.13 300 301.13 165.69 0 300-134.82 300-301.13v-209.18h-600z" fill="#fff"/>
<g stroke="#000" stroke-linecap="round" stroke-linejoin="round" stroke-miterlimit="20" stroke-width="3">
<path d="m159.8 546.45h47.604c4.916 0 22.25-12.16 39.584-12.16s30.27 4.657 40.878 8.538c7.761-4.14 18.24-10.866 24.579-11.643 6.338-0.776 18.886-2.717 32.21-2.717s20.698 0.646 24.838 2.199c4.139 1.553 17.075 5.674 32.857 19.146 1.948 1.662 4.269 1.811 5.821 1.811h30.528v64.767h-15.522c-8.623 0-9.313 4.183-16.429 5.864-7.114 1.682-12.159 1.553-13.841 1.553 0 0 5.627 7.567-1.164 14.358-6.792 6.792-11.428 6.339-15.136 3.234 0 0 2.846 6.985-2.976 12.807-4.872 4.872-12.195 3.194-22.033-2.803l-3.536-2.155s1.078 3.061-5.002 9.141-19.921 1.812-31.995-5.433c3.062 4.613 0.474 8.753-0.819 10.047-3.444 3.443-22.017 4.404-36.47-3.5 0 0-15.921 3.629-25.494-1.805-9.166-5.202-18.332-9.692-21.252-16.537-5.483 0-12.554 0.411-18.246-3.556s-18.456-14.66-18.456-23.63h-30.529v-67.526h1e-3z" fill="#f7d55d"/>
<path d="m287.86 542.82c-8.538 4.742-18.714 9.744-26.131 11.47-7.417 1.725-15.523 1.897-15.523 7.59 0 5.691 13.454 17.247 23.285 17.247s27.733-9.487 31.977-11.384c4.243-1.897 22.872-2.76 27.356 0s24.233 18.715 35.487 27.468 25.053 21 28.589 28.589" fill="none"/>
<path d="m325.64 607.5s32.34 21.732 50.968 33.893" fill="none"/>
<path d="m311.4 627.42s26.068 15.952 36.652 21.819" fill="none"/>
<path d="m259.32 569.13s13.612 0.603 21.388-5.692c7.244-5.864 1.661-12.723-3.137-15.244" fill="none"/>
<path d="m332.62 587.32s-2.587 4.915-7.632 7.632" fill="none"/>
<path d="m366.34 611.99s-1.553 4.916-6.598 7.632" fill="none"/>
<path d="m350.86 632.38s-1.421 4.499-6.039 6.985" fill="none"/>
<path d="m339.43 649.8s-1.299 4.112-5.52 6.385" fill="none"/>
<path d="m314.77 609.83s-0.515 3.584-5.56 6.301" fill="none"/>
<path d="m298.99 626.13s-0.514 3.584-5.559 6.3" fill="none"/>
<path d="m283.98 641.66s-0.515 3.583-5.56 6.3" fill="none"/>
<line x1="311.06" x2="292.52" y1="652.95" y2="641.14" fill="none"/>
<path d="m190.32 613.97s4.83-2.588 11.729-2.588 12.159 5.001 17.85 12.332c2.123 2.733 6.948 6.014 8.971 9.285 2.683 4.338 3.44 8.156-1.849 8.156" fill="none"/>
<path d="m210.58 614.2s10.442-3.163 17.859 5.807c7.417 8.969 19.318 24.491 27.424 27.424s17.905 2.704 17.905 12.067" fill="none"/>
<path d="m242.18 636.29c-1.855-2.073-8.441-3.503-12.344-1.583" fill="none"/>
<path d="m230.2 622.15s1.065 0.404-9.833 2.123" fill="none"/>
<path d="m94.659 536.36c10.519 21.991 17.014 52.202 17.014 85.549h50.02v-85.549h-67.034z" fill="#2b5df2"/>
<path d="m435.94 539.8v85.549h49.329c0-35.283 9.771-66.502 24.755-85.549h-74.084z" fill="#2b5df2"/>
</g>
<path d="m365.41 292.58c-59.676 0-63.914 63.432-63.914 63.432s-4.236-63.432-63.913-63.432-63.916 56.592-63.916 63.432c0 25.774 5.726 50.697 66.776 89.941 61.051 39.242 61.051 60.45 61.051 60.45s0-21.208 61.053-60.45c61.051-39.245 66.775-64.167 66.775-89.941 2e-3 -6.84-4.234-63.432-63.912-63.432z" fill="#e20909" stroke="#000" stroke-linecap="round" stroke-linejoin="round" stroke-miterlimit="20" stroke-width="3"/>
<g fill="#fff" stroke="#000" stroke-miterlimit="20" stroke-width="3">
<polygon transform="translate(-.037999 -.045)" points="301.54 49.32 320.08 106.4 380.11 106.4 331.55 141.68 350.1 198.77 301.54 163.49 252.98 198.77 271.53 141.68 222.97 106.4 282.99 106.4"/>
<polygon transform="translate(-.037999 -.045)" points="112.58 49.32 131.12 106.4 191.15 106.4 142.59 141.68 161.14 198.77 112.58 163.49 64.02 198.77 82.567 141.68 34.009 106.4 94.03 106.4"/>
<polygon transform="translate(-.037999 -.045)" points="509.04 106.4 569.06 106.4 520.51 141.68 539.06 198.77 490.5 163.49 441.94 198.77 460.49 141.68 411.93 106.4 471.95 106.4 490.5 49.32"/>
</g>
<line x1="1.5" x2="601.5" y1="251.19" y2="251.19" fill="none" stroke="#000" stroke-width="3"/>
</g>
<g>
<path d="m1.5 1.5v458.87c0 166.31 134.31 301.13 300 301.13 165.69 0 300-134.82 300-301.13v-458.87h-600z" fill="url(#a)"/>
<path d="m1.5 1.5v458.87c0 166.31 134.31 301.13 300 301.13 165.69 0 300-134.82 300-301.13v-458.87h-600z" fill="none" stroke="#000" stroke-width="3"/>
</g>
</svg>

<?xml version="1.0" encoding="UTF-8" standalone="no"?>
<svg
   xmlns:dc="http://purl.org/dc/elements/1.1/"
   xmlns:cc="http://creativecommons.org/ns#"
   xmlns:rdf="http://www.w3.org/1999/02/22-rdf-syntax-ns#"
   xmlns:svg="http://www.w3.org/2000/svg"
   xmlns="http://www.w3.org/2000/svg"
   xmlns:xlink="http://www.w3.org/1999/xlink"
   xmlns:sodipodi="http://sodipodi.sourceforge.net/DTD/sodipodi-0.dtd"
   xmlns:inkscape="http://www.inkscape.org/namespaces/inkscape"
   height="763"
   width="603"
   version="1.0"
   id="svg20"
   sodipodi:version="0.32"
   inkscape:version="0.46"
   sodipodi:docname="Corsier-sur-Vevey-coat_of_arms.svg"
   sodipodi:docbase="C:\Documents and Settings\Steve\Bureau\Blason Villages Suisse pour Wikipédia (par Delta-9)"
   inkscape:output_extension="org.inkscape.output.svg.inkscape">
  <metadata
     id="metadata31">
    <rdf:RDF>
      <cc:Work
         rdf:about="">
        <dc:format>image/svg+xml</dc:format>
        <dc:type
           rdf:resource="http://purl.org/dc/dcmitype/StillImage" />
        <dc:date>07-AUG-2006</dc:date>
        <dc:creator>
          <cc:Agent>
            <dc:title>Jérôme BLUM (wagner51)</dc:title>
          </cc:Agent>
        </dc:creator>
        <cc:license
           rdf:resource="http://creativecommons.org/licenses/GPL/2.0/" />
        <dc:coverage />
        <dc:description>Gabarit pour le Projet:Blasons de WIkipédia</dc:description>
        <dc:subject>
          <rdf:Bag>
            <rdf:li>blason suisse modèle gabarit projet blasons</rdf:li>
          </rdf:Bag>
        </dc:subject>
        <dc:language>fr</dc:language>
        <dc:title>Gabrit d'un blason suisse</dc:title>
      </cc:Work>
      <cc:License
         rdf:about="http://creativecommons.org/licenses/GPL/2.0/">
        <cc:permits
           rdf:resource="http://web.resource.org/cc/Reproduction" />
        <cc:permits
           rdf:resource="http://web.resource.org/cc/Distribution" />
        <cc:requires
           rdf:resource="http://web.resource.org/cc/Notice" />
        <cc:permits
           rdf:resource="http://web.resource.org/cc/DerivativeWorks" />
        <cc:requires
           rdf:resource="http://web.resource.org/cc/ShareAlike" />
        <cc:requires
           rdf:resource="http://web.resource.org/cc/SourceCode" />
      </cc:License>
    </rdf:RDF>
  </metadata>
  <defs
     id="defs29">
    <inkscape:perspective
       sodipodi:type="inkscape:persp3d"
       inkscape:vp_x="0 : 381.5 : 1"
       inkscape:vp_y="0 : 1000 : 0"
       inkscape:vp_z="603 : 381.5 : 1"
       inkscape:persp3d-origin="301.5 : 254.33333 : 1"
       id="perspective28" />
    <linearGradient
       id="linearGradient2893">
      <stop
         style="stop-color:#ffffff;stop-opacity:0.3137255;"
         offset="0"
         id="stop2895" />
      <stop
         id="stop2897"
         offset="0.19"
         style="stop-color:#ffffff;stop-opacity:0.25098041;" />
      <stop
         style="stop-color:#6b6b6b;stop-opacity:0.1254902;"
         offset="0.60000002"
         id="stop2901" />
      <stop
         style="stop-color:#000000;stop-opacity:0.1254902;"
         offset="1"
         id="stop2899" />
    </linearGradient>
    <linearGradient
       id="linearGradient2955">
      <stop
         style="stop-color:white;stop-opacity:0;"
         offset="0"
         id="stop2965" />
      <stop
         style="stop-color:black;stop-opacity:0.64583331;"
         offset="1"
         id="stop2959" />
    </linearGradient>
    <radialGradient
       inkscape:collect="always"
       xlink:href="#linearGradient2893"
       id="radialGradient3236"
       gradientUnits="userSpaceOnUse"
       gradientTransform="matrix(1.215027,1.531577e-24,1.464684e-23,1.266667,-839.1924,-490.4894)"
       cx="858.04236"
       cy="579.93323"
       fx="858.04236"
       fy="579.93323"
       r="300" />
    <inkscape:perspective
       id="perspective2599"
       inkscape:persp3d-origin="297.63751 : 280.63 : 1"
       inkscape:vp_z="595.27502 : 420.94501 : 1"
       inkscape:vp_y="0 : 1000 : 0"
       inkscape:vp_x="0 : 420.94501 : 1"
       sodipodi:type="inkscape:persp3d" />
  </defs>
  <sodipodi:namedview
     inkscape:window-height="864"
     inkscape:window-width="1170"
     inkscape:pageshadow="2"
     inkscape:pageopacity="0.0"
     guidetolerance="10.0"
     gridtolerance="10.0"
     objecttolerance="10.0"
     borderopacity="1.0"
     bordercolor="#666666"
     pagecolor="#ffffff"
     id="base"
     inkscape:zoom="0.42913438"
     inkscape:cx="-50.453926"
     inkscape:cy="341.25544"
     inkscape:window-x="20"
     inkscape:window-y="42"
     inkscape:current-layer="layer2"
     showgrid="false"
     showguides="true"
     inkscape:guide-bbox="true">
    <sodipodi:guide
       orientation="horizontal"
       position="761.5"
       id="guide1885" />
    <sodipodi:guide
       orientation="vertical"
       position="1.5"
       id="guide1887" />
    <sodipodi:guide
       orientation="horizontal"
       position="1.5"
       id="guide1889" />
    <sodipodi:guide
       orientation="vertical"
       position="601.5"
       id="guide1891" />
    <sodipodi:guide
       orientation="vertical"
       position="301.50081"
       id="guide1893" />
  </sodipodi:namedview>
  <desc
     id="desc22">Coat of Arms of Canton of Freiburg (Fribourg)</desc>
  <g
     inkscape:groupmode="layer"
     id="layer1"
     inkscape:label="Fond écu"
     style="opacity:1"
     sodipodi:insensitive="true">
    <path
       d="M 1.500001,1.5 L 1.500001,460.369 C 1.500001,626.68 135.814,761.5 301.5,761.5 C 467.186,761.5 601.5,626.68 601.5,460.369 L 601.5,1.5 L 1.500001,1.5 z"
       id="path2606"
       style="opacity:1;fill:#2b5df2" />
    <path
       d="M 1.500001,251.188 L 1.500001,460.369 C 1.500001,626.68 135.814,761.5 301.5,761.5 C 467.187,761.5 601.5,626.68 601.5,460.369 L 601.5,251.188 L 1.500001,251.188 z"
       id="path2472"
       style="opacity:1;fill:#ffffff" />
  </g>
  <g
     inkscape:groupmode="layer"
     id="layer2"
     inkscape:label="Meubles"
     style="opacity:1"
     sodipodi:insensitive="true">
    <g
       id="g2744">
      <path
         id="path2545"
         d="M 159.795,546.446 C 159.795,546.446 202.484,546.446 207.399,546.446 C 212.315,546.446 229.649,534.286 246.983,534.286 C 264.317,534.286 277.253,538.943 287.861,542.824 C 295.622,538.684 306.101,531.958 312.44,531.181 C 318.778,530.405 331.326,528.464 344.65,528.464 C 357.974,528.464 365.348,529.11 369.488,530.663 C 373.627,532.216 386.563,536.337 402.345,549.809 C 404.293,551.471 406.614,551.62 408.166,551.62 C 409.718,551.62 438.694,551.62 438.694,551.62 L 438.694,616.387 L 423.172,616.387 C 414.549,616.387 413.859,620.57 406.743,622.251 C 399.629,623.933 394.584,623.804 392.902,623.804 C 392.902,623.804 398.529,631.371 391.738,638.162 C 384.946,644.954 380.31,644.501 376.602,641.396 C 376.602,641.396 379.448,648.381 373.626,654.203 C 368.754,659.075 361.431,657.397 351.593,651.4 C 348.057,649.245 348.057,649.245 348.057,649.245 C 348.057,649.245 349.135,652.306 343.055,658.386 C 336.975,664.466 323.134,660.198 311.06,652.953 C 314.122,657.566 311.534,661.706 310.241,663 C 306.797,666.443 288.224,667.404 273.771,659.5 C 273.771,659.5 257.85,663.129 248.277,657.695 C 239.111,652.493 229.945,648.003 227.025,641.158 C 221.542,641.158 214.471,641.569 208.779,637.602 C 203.087,633.635 190.323,622.942 190.323,613.972 L 159.794,613.972 L 159.794,546.446 L 159.795,546.446 z"
         stroke-miterlimit="20"
         style="fill:#f7d55d;stroke:#000000;stroke-width:3;stroke-linecap:round;stroke-linejoin:round;stroke-miterlimit:20" />
      <path
         style="fill:none;stroke:#000000;stroke-width:3;stroke-linecap:round;stroke-linejoin:round;stroke-miterlimit:20"
         stroke-miterlimit="20"
         d="M 287.862,542.824 C 279.324,547.566 269.148,552.568 261.731,554.294 C 254.314,556.019 246.208,556.191 246.208,561.884 C 246.208,567.575 259.662,579.131 269.493,579.131 C 279.324,579.131 297.226,569.644 301.47,567.747 C 305.713,565.85 324.342,564.987 328.826,567.747 C 333.31,570.507 353.059,586.462 364.313,595.215 C 375.567,603.968 389.366,616.215 392.902,623.804"
         id="path2549" />
      <path
         style="fill:none;stroke:#000000;stroke-width:3;stroke-linecap:round;stroke-linejoin:round;stroke-miterlimit:20"
         stroke-miterlimit="20"
         d="M 325.635,607.503 C 325.635,607.503 357.975,629.235 376.603,641.396"
         id="path2551" />
      <path
         style="fill:none;stroke:#000000;stroke-width:3;stroke-linecap:round;stroke-linejoin:round;stroke-miterlimit:20"
         stroke-miterlimit="20"
         d="M 311.405,627.425 C 311.405,627.425 337.473,643.377 348.057,649.244"
         id="path2553" />
      <path
         style="fill:none;stroke:#000000;stroke-width:3;stroke-linecap:round;stroke-linejoin:round;stroke-miterlimit:20"
         stroke-miterlimit="20"
         d="M 259.316,569.127 C 259.316,569.127 272.928,569.73 280.704,563.435 C 287.948,557.571 282.365,550.712 277.567,548.191"
         id="path2555" />
      <path
         style="fill:none;stroke:#000000;stroke-width:3;stroke-linecap:round;stroke-linejoin:round;stroke-miterlimit:20"
         stroke-miterlimit="20"
         d="M 332.62,587.324 C 332.62,587.324 330.033,592.239 324.988,594.956"
         id="path2557" />
      <path
         style="fill:none;stroke:#000000;stroke-width:3;stroke-linecap:round;stroke-linejoin:round;stroke-miterlimit:20"
         stroke-miterlimit="20"
         d="M 366.341,611.989 C 366.341,611.989 364.788,616.905 359.743,619.621"
         id="path2559" />
      <path
         style="fill:none;stroke:#000000;stroke-width:3;stroke-linecap:round;stroke-linejoin:round;stroke-miterlimit:20"
         stroke-miterlimit="20"
         d="M 350.862,632.384 C 350.862,632.384 349.441,636.883 344.823,639.369"
         id="path2561" />
      <path
         style="fill:none;stroke:#000000;stroke-width:3;stroke-linecap:round;stroke-linejoin:round;stroke-miterlimit:20"
         stroke-miterlimit="20"
         d="M 339.432,649.802 C 339.432,649.802 338.133,653.914 333.912,656.187"
         id="path2563" />
      <path
         style="fill:none;stroke:#000000;stroke-width:3;stroke-linecap:round;stroke-linejoin:round;stroke-miterlimit:20"
         stroke-miterlimit="20"
         d="M 314.769,609.831 C 314.769,609.831 314.254,613.415 309.209,616.132"
         id="path2565" />
      <path
         style="fill:none;stroke:#000000;stroke-width:3;stroke-linecap:round;stroke-linejoin:round;stroke-miterlimit:20"
         stroke-miterlimit="20"
         d="M 298.986,626.131 C 298.986,626.131 298.472,629.715 293.427,632.431"
         id="path2567" />
      <path
         style="fill:none;stroke:#000000;stroke-width:3;stroke-linecap:round;stroke-linejoin:round;stroke-miterlimit:20"
         stroke-miterlimit="20"
         d="M 283.981,641.655 C 283.981,641.655 283.466,645.238 278.421,647.955"
         id="path2569" />
      <line
         style="fill:none;stroke:#000000;stroke-width:3;stroke-linecap:round;stroke-linejoin:round;stroke-miterlimit:20"
         stroke-miterlimit="20"
         x1="311.061"
         y1="652.953"
         x2="292.51901"
         y2="641.13702"
         id="line2571" />
      <path
         style="fill:none;stroke:#000000;stroke-width:3;stroke-linecap:round;stroke-linejoin:round;stroke-miterlimit:20"
         stroke-miterlimit="20"
         d="M 190.324,613.972 C 190.324,613.972 195.154,611.384 202.053,611.384 C 208.952,611.384 214.212,616.385 219.903,623.716 C 222.026,626.449 226.851,629.73 228.874,633.001 C 231.557,637.339 232.314,641.157 227.025,641.157"
         id="path2573" />
      <path
         style="fill:none;stroke:#000000;stroke-width:3;stroke-linecap:round;stroke-linejoin:round;stroke-miterlimit:20"
         stroke-miterlimit="20"
         d="M 210.584,614.202 C 210.584,614.202 221.026,611.039 228.443,620.009 C 235.86,628.978 247.761,644.5 255.867,647.433 C 263.973,650.366 273.772,650.137 273.772,659.5"
         id="path2575" />
      <path
         style="fill:none;stroke:#000000;stroke-width:3;stroke-linecap:round;stroke-linejoin:round;stroke-miterlimit:20"
         stroke-miterlimit="20"
         d="M 242.18,636.291 C 240.325,634.218 233.739,632.788 229.836,634.708"
         id="path2577" />
      <path
         style="fill:none;stroke:#000000;stroke-width:3;stroke-linecap:round;stroke-linejoin:round;stroke-miterlimit:20"
         stroke-miterlimit="20"
         d="M 230.202,622.152 C 230.202,622.152 231.267,622.556 220.369,624.275"
         id="path2579" />
      <path
         style="fill:#2b5df2;stroke:#000000;stroke-width:3;stroke-linecap:round;stroke-linejoin:round;stroke-miterlimit:20"
         stroke-miterlimit="20"
         d="M 94.659,536.357 C 105.178,558.348 111.673,588.559 111.673,621.906 L 161.693,621.906 L 161.693,536.357 L 94.659,536.357 z"
         id="path2583" />
      <path
         style="fill:#2b5df2;stroke:#000000;stroke-width:3;stroke-linecap:round;stroke-linejoin:round;stroke-miterlimit:20"
         stroke-miterlimit="20"
         d="M 435.937,539.805 L 435.937,625.354 L 485.266,625.354 C 485.266,590.071 495.037,558.852 510.021,539.805 L 435.937,539.805 z"
         id="path2585" />
    </g>
    <g
       id="g2770">
      <path
         style="fill:#e20909;stroke:#000000;stroke-width:3;stroke-linecap:round;stroke-linejoin:round;stroke-miterlimit:20"
         id="path2526"
         stroke-miterlimit="20"
         d="M 365.414,292.577 C 305.738,292.577 301.5,356.009 301.5,356.009 C 301.5,356.009 297.264,292.577 237.587,292.577 C 177.91,292.577 173.671,349.169 173.671,356.009 C 173.671,381.783 179.397,406.706 240.447,445.95 C 301.498,485.192 301.498,506.4 301.498,506.4 C 301.498,506.4 301.498,485.192 362.551,445.95 C 423.602,406.705 429.326,381.783 429.326,356.009 C 429.328,349.169 425.092,292.577 365.414,292.577 z" />
    </g>
    <g
       id="g2765"
       style="fill:#ffffff">
      <polygon
         transform="translate(-3.7999e-2,-4.5e-2)"
         points="301.537,49.32 320.083,106.404 380.106,106.404 331.547,141.684 350.097,198.769 301.537,163.489 252.979,198.769 271.526,141.684 222.968,106.404 282.989,106.404 301.537,49.32 "
         stroke-miterlimit="20"
         id="polygon2528"
         style="fill:#ffffff;stroke:#000000;stroke-width:3;stroke-miterlimit:20" />
      <polygon
         transform="translate(-3.7999e-2,-4.5e-2)"
         points="112.578,49.32 131.124,106.404 191.147,106.404 142.588,141.684 161.138,198.769 112.578,163.489 64.02,198.769 82.567,141.684 34.009,106.404 94.03,106.404 112.578,49.32 "
         stroke-miterlimit="20"
         id="polygon2528_4_"
         style="fill:#ffffff;stroke:#000000;stroke-width:3;stroke-miterlimit:20" />
      <polygon
         transform="translate(-3.7999e-2,-4.5e-2)"
         points="509.044,106.404 569.065,106.404 520.507,141.684 539.055,198.769 490.496,163.489 441.937,198.769 460.486,141.684 411.927,106.404 471.95,106.404 490.496,49.32 509.044,106.404 "
         stroke-miterlimit="20"
         id="polygon2528_6_"
         style="fill:#ffffff;stroke:#000000;stroke-width:3;stroke-miterlimit:20" />
    </g>
    <line
       style="fill:none;stroke:#000000;stroke-width:3"
       x1="1.5000008"
       y1="251.18799"
       x2="601.49902"
       y2="251.18799"
       id="line2592" />
  </g>
  <g
     inkscape:groupmode="layer"
     id="layer3"
     inkscape:label="Reflet final"
     style="display:inline"
     sodipodi:insensitive="true">
    <path
       style="fill:url(#radialGradient3236);fill-opacity:1"
       d="M 1.5,1.5 L 1.5,460.3679 C 1.5,626.67854 135.81454,761.5 301.49993,761.5 C 467.1854,761.5 601.5,626.67854 601.5,460.3679 L 601.5,1.5 L 1.5,1.5 z "
       id="path2346" />
  </g>
  <g
     inkscape:groupmode="layer"
     id="layer4"
     inkscape:label="Contour final"
     style="display:inline"
     sodipodi:insensitive="true">
    <path
       style="fill:none;fill-opacity:1;stroke:#000000;stroke-width:3;stroke-miterlimit:4;stroke-dasharray:none;stroke-opacity:1"
       d="M 1.5,1.5 L 1.5,460.36794 C 1.5,626.67854 135.81454,761.5 301.49993,761.5 C 467.1854,761.5 601.5,626.67854 601.5,460.36794 L 601.5,1.5 L 1.5,1.5 z "
       id="path3239" />
  </g>
</svg>
